X:1
T:Title
%%score { ( 1 3 4 ) | ( 2 5 ) }
L:1/8
Q:1/4=96
M:2/4
K:Eb
V:1 treble nm="Grand Piano"
V:3 treble 
V:4 treble 
V:2 bass 
V:5 bass 
V:1
 [B,EG]2 [B,EG]2 | [=A,E_G]2 [A,EG]2 | [B,EG][EGc] [EGB][B,EG] | [B,E][B,D] [B,E][B,EG] | %4
w: Fred~W.~Peace *||||
 [B,DF]2 [B,DF]2 | [B,_D=E]2 [B,DE]2 | [B,DF][B,DG] [B,DA][B,D=A] | [DFAc]2 [DFAB]2 | %8
w: ||||
 [B,EG]2 [B,EG]2 | [=A,E_G]2 [A,EG]2 | [B,EG][EGc] [EGB][B,EG] | [B,E][B,D] [B,E][B,EG] | %12
w: ||||
 [B,F]2 [B,DF]2 | [B,EG]2 [CEG]2 | .=A2 z2 |[M:1/4] [B,DFB]2 | B,=B, |[M:2/4] z B z B | z B z B | %19
w: |||||||
 z B[K:bass] z2[K:treble] | z B B=B | z c z c | z c z c | z c cf | c=B c_d | [FAd]2 [FA]2 | %26
w: |||||||
 [FAd]2 [DFAc]2 | [GB]>A [GB][F=B] | [=Ec]2 [EG]2 | z2 c2- | c z z2 | [EGe]4- | [EGe]2 z2 |] %33
w: |||||||
V:2
 [E,,E,]2 [B,,,B,,]2 | [E,,E,]2 [B,,,B,,]2 | [E,,E,]2 [B,,,B,,]2 | [G,,G,][A,,A,] [G,,G,][E,,E,] | %4
 [B,,,B,,]2 [F,,F,]2 | [B,,,B,,]2 [G,,G,]2 | [A,,A,]2 [F,,F,]2 | [D,,D,]2 [B,,,B,,]2 | %8
 [E,,E,]2 [B,,,B,,]2 | [E,,E,]2 [B,,,B,,]2 | [E,,E,]2 [B,,,B,,]2 | [G,,G,][A,,A,] [G,,G,][E,,E,] | %12
 [D,,D,]2 [B,,,B,,]2 | [E,,E,]2 [C,,C,]2 | [F,,F,]2 [F,,F,]2 |[M:1/4] [B,,,B,,]2 | z2 | %17
[M:2/4] z[K:treble] [DFA] z [DFA] | z [DFA] z [DFA] | z [EG] z [G,EG] | z [EG] [B,EG][=B,EG] | %21
 z [=EGB] z [EGB] | z [=EGB] z [EGB] | z [FA] [FA][FAc] | [FA]2 z2 | %25
 .B,,>[K:treble]_d[K:bass] D,[F,B,] | B,,C, D,B,, | z B, z2 | E,G, C,G, | [F,CF][G,CF] F2- | %30
 F[FA][K:bass] z D | E,C B,G, | E,2 z2 |] %33
V:3
 x4 | x4 | x4 | x4 | x4 | x4 | x4 | x4 | x4 | x4 | x4 | x4 | x4 | x4 | [CE]-[CEG] [CE=A][=A,EF] | %15
[M:1/4] x2 | x2 |[M:2/4] C2 D,2 | G,2 F,2 | z z/[K:bass] D,/ E,[K:treble]B | B,2 z2 | C2 G,2 | %22
 A,2 B,2 | A,4- | A,2 z2 | z [F,B,] d_d | x4 | x4 | z B, z B, | AB z2 | Ae [FAd][AB] | x4 | x4 |] %33
V:4
 x4 | x4 | x4 | x4 | x4 | x4 | x4 | x4 | x4 | x4 | x4 | x4 | x4 | x4 | x4 |[M:1/4] x2 | x2 | %17
[M:2/4] x4 | x4 | E,2[K:bass] z2[K:treble] | x4 | x4 | x4 | x4 | x4 | x4 | x4 | x4 | x4 | x4 | x4 | %31
 x4 | x4 |] %33
V:5
 x4 | x4 | x4 | x4 | x4 | x4 | x4 | x4 | x4 | x4 | x4 | x4 | x4 | x4 | x4 |[M:1/4] x2 | x2 | %17
[M:2/4] x[K:treble] x3 | x4 | x4 | x4 | x4 | x4 | x4 | x4 | z D,[K:treble][K:bass] z2 | x4 | %27
 .E,>F E,D, | x4 | z2 [A,C]2 | [B,,B,]2[K:bass] [B,,B,]2 | x4 | x4 |] %33

